src/lib/packages/icons/src/assets/line/castle.svg

<svg xmlns="http://www.w3.org/2000/svg" width="24" height="24" fill="none"><path fill="currentColor" d="M21 20.25h-1.315l-.876-9.635A2.744 2.744 0 0 0 20.75 8V3.5c0-.689-.561-1.25-1.25-1.25h-2c-.689 0-1.25.561-1.25 1.25V5a.75.75 0 0 1-1.5 0V3.5c0-.689-.561-1.25-1.25-1.25h-3c-.689 0-1.25.561-1.25 1.25V5a.75.75 0 0 1-1.5 0V3.5c0-.689-.561-1.25-1.25-1.25h-2c-.689 0-1.25.561-1.25 1.25V8c0 1.233.821 2.267 1.941 2.615l-.876 9.635H3a.75.75 0 0 0 0 1.5h7a.75.75 0 0 0 .75-.75v-4c0-.689.561-1.25 1.25-1.25s1.25.561 1.25 1.25v4c0 .414.336.75.75.75h7a.75.75 0 0 0 0-1.5ZM4.75 8V3.75h1.5V5c0 1.241 1.01 2.25 2.25 2.25S10.75 6.241 10.75 5V3.75h2.5V5c0 1.241 1.01 2.25 2.25 2.25S17.75 6.241 17.75 5V3.75h1.5V8c0 .689-.561 1.25-1.25 1.25H6c-.689 0-1.25-.561-1.25-1.25ZM12 14.25A2.752 2.752 0 0 0 9.25 17v3.25H5.821l.863-9.5h10.63l.864 9.5h-3.429V17A2.75 2.75 0 0 0 12 14.25Z"/></svg>

<svg width="24" height="24" viewBox="0 0 24 24" fill="none" xmlns="http://www.w3.org/2000/svg">
<path d="M21 20.25H19.6851L18.809 10.615C19.929 10.267 20.75 9.234 20.75 8V3.5C20.75 2.811 20.189 2.25 19.5 2.25H17.5C16.811 2.25 16.25 2.811 16.25 3.5V5C16.25 5.414 15.913 5.75 15.5 5.75C15.087 5.75 14.75 5.414 14.75 5V3.5C14.75 2.811 14.189 2.25 13.5 2.25H10.5C9.811 2.25 9.25 2.811 9.25 3.5V5C9.25 5.414 8.913 5.75 8.5 5.75C8.087 5.75 7.75 5.414 7.75 5V3.5C7.75 2.811 7.189 2.25 6.5 2.25H4.5C3.811 2.25 3.25 2.811 3.25 3.5V8C3.25 9.233 4.07104 10.267 5.19104 10.615L4.31494 20.25H3C2.586 20.25 2.25 20.586 2.25 21C2.25 21.414 2.586 21.75 3 21.75H5H5.56995H10C10.414 21.75 10.75 21.414 10.75 21V17C10.75 16.311 11.311 15.75 12 15.75C12.689 15.75 13.25 16.311 13.25 17V21C13.25 21.414 13.586 21.75 14 21.75H18.4301H19H21C21.414 21.75 21.75 21.414 21.75 21C21.75 20.586 21.414 20.25 21 20.25ZM4.75 8V3.75H6.25V5C6.25 6.241 7.26 7.25 8.5 7.25C9.74 7.25 10.75 6.241 10.75 5V3.75H13.25V5C13.25 6.241 14.26 7.25 15.5 7.25C16.74 7.25 17.75 6.241 17.75 5V3.75H19.25V8C19.25 8.689 18.689 9.25 18 9.25H6C5.311 9.25 4.75 8.689 4.75 8ZM12 14.25C10.483 14.25 9.25 15.483 9.25 17V20.25H5.82104L6.68396 10.75H17.3149L18.178 20.25H14.749V17C14.75 15.483 13.517 14.25 12 14.25Z" fill="currentColor"/>
</svg>
